img/homepage/home-dxu-desktop.svg

<svg data-name="Layer 1" xmlns="http://www.w3.org/2000/svg" viewBox="0 0 24 24"><path d="M0 0h24v24H0z" fill="none"/><path d="M4 6h18V4H4a2 2 0 00-2 2v11H0v3h14v-3H4zm19 2h-6a1 1 0 00-1 1v10a1 1 0 001 1h6a1 1 0 001-1V9a1 1 0 00-1-1zm-1 9h-4v-7h4z"/><path d="M14.26 11.76a4.35 4.35 0 01-4.14 4.12c0-.84.11-3.13.74-3.56a7.45 7.45 0 013.4-.56zm-4.53 4.12a4.35 4.35 0 01-4.14-4.12 7.45 7.45 0 013.4.56c.63.43.74 2.68.74 3.56zm-4.14-4.55A4.36 4.36 0 019.73 7.2c0 .85-.11 3.14-.74 3.55a7.44 7.44 0 01-3.4.58zm4.53-4.13a4.36 4.36 0 014.14 4.13 7.44 7.44 0 01-3.4-.58c-.63-.41-.74-2.7-.74-3.55z"/></svg>

<svg id="Layer_1" data-name="Layer 1" xmlns="http://www.w3.org/2000/svg" viewBox="0 0 24 24"><defs><style>.cls-1{fill:none;}</style></defs><title>CompMobile</title><path class="cls-1" d="M0,0H24V24H0Z"/><path d="M4,6H22V4H4A2,2,0,0,0,2,6V17H0v3H14V17H4ZM23,8H17a1,1,0,0,0-1,1V19a1,1,0,0,0,1,1h6a1,1,0,0,0,1-1V9A1,1,0,0,0,23,8Zm-1,9H18V10h4Z"/><path d="M14.26,11.76a4.35,4.35,0,0,1-4.14,4.12c0-.84.11-3.13.74-3.56A7.45,7.45,0,0,1,14.26,11.76ZM9.73,15.88a4.35,4.35,0,0,1-4.14-4.12,7.45,7.45,0,0,1,3.4.56C9.62,12.75,9.73,15,9.73,15.88ZM5.59,11.33A4.36,4.36,0,0,1,9.73,7.2c0,.85-.11,3.14-.74,3.55a7.44,7.44,0,0,1-3.4.58ZM10.12,7.2a4.36,4.36,0,0,1,4.14,4.13,7.44,7.44,0,0,1-3.4-.58c-.63-.41-.74-2.7-.74-3.55Z"/></svg>
